X:12973
T:Peerless Hornpipe
M:2/4
L:1/16
K:C
G2|cGEG CGEG|FGDG FGDG|EGcd ecfe|dcBA G2 (3GAB|!
cGEG CGEG|FGDG FGDG|EGcd edcB|c2[E2c2] [E2c2]:|!
|:Bc|dBGB dBgf|ecGc ecag|^fdAd ^fdba|gafg efde|!
cGEG CGEG|FGDG FGDG|EGcd edcB|c2[E2c2] [E2c2]:|!
